src/pictures/icons/logout2Icon.svg

<svg width="29" height="26" viewBox="0 0 29 26" fill="none" xmlns="http://www.w3.org/2000/svg">
<path d="M11.2117 12.9997L3.29346 12.9997L5.55581 15.2031" stroke="white" stroke-width="2" stroke-linecap="round" stroke-linejoin="round"/>
<path d="M3.29346 13L5.62235 10.7966" stroke="white" stroke-width="2" stroke-linecap="round" stroke-linejoin="round"/>
<path d="M6.78662 18.3986C7.38244 22.2206 9.76573 23.7969 14.6584 23.7969L18.0958 23.7969C23.8249 23.7969 26.1165 21.6376 26.1165 16.2393L26.1165 9.76129C26.1165 4.36299 23.8249 2.20367 18.0958 2.20367L14.6584 2.20367C9.76573 2.20367 7.38244 3.77998 6.78662 7.60197" stroke="white" stroke-width="2" stroke-linecap="round" stroke-linejoin="round"/>
</svg>

<svg width="29" height="26" fill="none" xmlns="http://www.w3.org/2000/svg"><path d="M11.212 13H3.293l2.263 2.203M3.293 13l2.33-2.203" stroke="#fff" stroke-width="2" stroke-linecap="round" stroke-linejoin="round"/><path d="M6.787 18.399c.595 3.822 2.979 5.398 7.871 5.398h3.438c5.729 0 8.02-2.16 8.02-7.558V9.761c0-5.398-2.291-7.557-8.02-7.557h-3.438c-4.892 0-7.276 1.576-7.871 5.398" stroke="#fff" stroke-width="2" stroke-linecap="round" stroke-linejoin="round"/></svg>
